dist/svg/static/traffic-sign-recognition-alert-small.svg

<svg xmlns="http://www.w3.org/2000/svg" width="24" height="24" viewBox="0 0 24 24"><g fill="none" stroke="currentColor"><path stroke-miterlimit="10" d="M19.5 15l3.7 7.5H.8L12 1.5 13.5 4"/><path stroke-miterlimit="10" d="M15 14.5l2.5 2.2v2.8c0 .2-.1 1-.3 1H16c-.2 0-.5-.8-.5-1h-5c0 .2-.1 1-.3 1H8.8c-.2 0-.3-.8-.3-1v-2.8l2.5-2.2h4zM6.5 18v-3.2L9 12.5"/><path stroke-linejoin="round" d="M17.5 5v3M17.5 9v2"/><path stroke-miterlimit="10" d="M23.2 12.5H11.6L17.5 1z"/></g></svg>

<?xml version="1.0" encoding="UTF-8" standalone="no"?>
<svg width="24px" height="24px" viewBox="0 0 24 24" version="1.1" xmlns="http://www.w3.org/2000/svg" xmlns:xlink="http://www.w3.org/1999/xlink">
    <!-- Generator: sketchtool 46.2 (44496) - http://www.bohemiancoding.com/sketch -->
    <title>traffic-sign-recognition-alert-small</title>
    <desc>Created with sketchtool.</desc>
    <defs></defs>
    <g id="icons-published" stroke="none" stroke-width="1" fill="none" fill-rule="evenodd">
        <g id="briefing" transform="translate(-644.000000, -2202.000000)"></g>
        <g id="traffic-sign-recognition-alert-small" stroke="#000000">
            <polyline id="Shape" points="19.5 15 23.2 22.5 0.8 22.5 12 1.5 13.5 4"></polyline>
            <path d="M15,14.5 L17.5,16.7 L17.5,19.5 C17.5,19.7 17.4,20.5 17.2,20.5 L16,20.5 C15.8,20.5 15.5,19.7 15.5,19.5 L10.5,19.5 C10.5,19.7 10.4,20.5 10.2,20.5 L8.8,20.5 C8.6,20.5 8.5,19.7 8.5,19.5 L8.5,16.7 L11,14.5 C11,14.5 15,14.5 15,14.5 Z" id="Shape"></path>
            <polyline id="Path" points="6.5 18 6.5 14.8 9 12.5"></polyline>
            <path d="M17.5,5 L17.5,8 M17.5,9 L17.5,11" id="Shape" stroke-linejoin="round"></path>
            <polygon id="Shape" points="23.2 12.5 11.6 12.5 17.5 1"></polygon>
        </g>
    </g>
</svg>
